X:1
T:Asturias, 77.76 D
T:Asturias, 77.76 D
T:William Lesley Mason, 1893
T:Public Domain Courtesy of the Cyber Hymnal™
C:William Lesley Mason, 1893
Z:Public Domain
Z:Courtesy of the Cyber Hymnal™
%%score ( 1 2 ) 3
L:1/8
Q:1/4=85
M:2/4
K:F
V:1 treble 
V:2 treble 
V:3 bass 
V:1
 C[CF] [CF][FA] | [DA][DG] [DB]2 | C[CE] [CE][CG] | [CG][CF] [FA]2 | C[CF] [CF][FA] | %5
 [DA][DG] [DB]2 | [FA][Fc] [EB][EG] | [EG]2 F2 | [Ac]>[GB] [FA][Ac] | [Ac][GB] [GB]2 | %10
 [GB]>[FA] [EG][GB] | [GB][FA] [FA]2 | C[CF] [CF][FA] | [DA][DG] [DB]2 | [FA][Fc] [EB][EG] | %15
 [EG]2 F2 |] %16
V:2
 C x3 | x4 | C x3 | x4 | C x3 | x4 | x4 | x2 F2 | x4 | x4 | x4 | x4 | C x3 | x4 | x4 | x2 F2 |] %16
V:3
 [F,A,][F,A,] [F,A,][F,A,] | [B,,B,][B,,B,] [B,,B,]2 | [C,A,][C,A,] [C,A,][C,A,] | %3
 [F,B,][F,A,] [F,C]2 | [F,A,][F,A,] [F,A,][F,A,] | [B,,B,][B,,B,] [B,,B,]2 | %6
 [C,A,][C,A,] [C,G,][C,B,] | [F,B,]2 [F,A,]2 | [F,C]>[F,C] [F,C][F,C] | [C,C][C,C] [C,C]2 | %10
 [C,C]>[C,C] [C,C][C,C] | [F,C][F,C] [F,C]2 | [F,A,][F,A,] [F,A,][F,A,] | [B,,B,][B,,B,] [B,,B,]2 | %14
 [C,A,][C,A,] [C,G,][C,B,] | [F,B,]2 [F,A,]2 |] %16

